img/icons/svg/icon__plane.svg

<svg width="49" height="30" fill="none" xmlns="http://www.w3.org/2000/svg">
  <path d="M40.8029 26.7581L38.4468 17.5243C38.3733 17.2363 38.1753 16.9963 37.9037 16.8663 37.6322 16.7363 37.3157 16.7323 37.0401 16.8523 35.3762 17.5803 33.5551 18.3443 31.491 19.1583 30.656 19.4882 29.7474 19.8362 28.7899 20.1943 28.4837 20.3083 28.2529 20.5602 28.1672 20.8703 28.0834 21.1803 28.1569 21.5123 28.3652 21.7602L34.9413 29.632C35.1373 29.872 35.4313 30 35.7294 30 35.8845 30 36.0397 29.966 36.1867 29.894L40.27 27.894C40.6968 27.684 40.9193 27.2121 40.8029 26.7581zM30.6172 6.87597C30.5682 6.48194 30.2864 6.15598 29.8986 6.04198L9.48237.0421218C9.12301-.063907 8.73312.0341532 8.46564.292147L4.38236 4.29209C4.15775 4.51211 4.04961 4.82411 4.09248 5.13207 4.13536 5.44003 4.32111 5.71405 4.59884 5.86808L18.8902 13.8679C19.0474 13.9559 19.2229 13.9999 19.3965 13.9999 19.5783 13.9999 19.7599 13.9519 19.9212 13.8578L30.1294 7.85797C30.4763 7.65398 30.6662 7.26999 30.6172 6.87597z" fill="#304BAB"/>
  <path d="M48.0548 3.98466C48.0283 3.98662 48.0058 4.00069 47.9793 4.00069C44.3329 4.00069 40.4579 6.77665 40.4212 6.80459C40.2374 6.93659 40.0251 7.00062 39.8128 7.00062C39.5004 7.00062 39.1922 6.86065 38.9921 6.5946C38.6552 6.15061 38.7512 5.52662 39.2044 5.19663C39.3392 5.09866 41.783 3.34267 44.8271 2.47672C43.5653 2.1847 41.9341 2.00076 39.8128 2.00076C34.0412 2.00076 27.414 4.96666 27.1363 5.09266C26.6259 5.32469 26.4013 5.91867 26.6361 6.4206C26.6525 6.45463 26.6831 6.47657 26.7015 6.50863L18.2185 11.4925C17.947 11.0505 17.3774 10.8705 16.8975 11.1066L15.3276 11.8746L18.8902 13.8685C19.2067 14.0445 19.613 14.0405 19.9212 13.8585L30.1294 7.8586C30.6152 7.57257 31.24 7.72857 31.53 8.20059C31.8198 8.67458 31.6627 9.28853 31.1808 9.57259L20.9727 15.5725C20.4991 15.8525 19.9518 16.0004 19.3966 16.0004C18.8657 16.0004 18.339 15.8644 17.8776 15.6044L13.135 12.9505L11.2301 13.8825L3.52083 10.1066C3.12472 9.91458 2.65311 9.98855 2.34074 10.2926L0.299146 12.2925C-0.0438465 12.6285 -0.0989703 13.1584 0.170524 13.5544L3.63108 18.6383C0.00103753 20.6263 0.00103732 21.6103 0.00103732 22.0003C0.00103732 23.8022 2.61636 24.0002 8.1675 24.0002C13.6023 24.0002 49 12.2904 49 6.00061C49 5.49868 48.8346 4.72264 48.0548 3.98466Z" fill="#304BAB"/>
</svg>

<svg width="49" height="30" fill="none" xmlns="http://www.w3.org/2000/svg"><path d="M40.803 26.758l-2.356-9.234a1.005 1.005 0 00-.543-.658 1.041 1.041 0 00-.864-.014 161.912 161.912 0 01-8.25 3.342 1.01 1.01 0 00-.623.676.984.984 0 00.198.89l6.576 7.872a1.034 1.034 0 001.245.262l4.084-2a.993.993 0 00.533-1.136zM30.617 6.876a1.002 1.002 0 00-.718-.834l-20.417-6a1.044 1.044 0 00-1.016.25l-4.084 4A.988.988 0 004.6 5.868l14.291 8a1.039 1.039 0 001.031-.01l10.208-6a.995.995 0 00.488-.982z" fill="#304BAB"/><path d="M48.055 3.985c-.027.002-.05.016-.076.016-3.646 0-7.521 2.776-7.558 2.804a1.038 1.038 0 01-1.429-.21.985.985 0 01.212-1.398c.135-.098 2.579-1.854 5.623-2.72C43.565 2.185 41.934 2 39.813 2 34.04 2 27.414 4.967 27.136 5.093a.996.996 0 00-.5 1.328c.017.034.047.056.066.088l-8.484 4.983a1.023 1.023 0 00-1.32-.385l-1.57.768 3.562 1.993c.317.176.723.172 1.031-.01l10.208-6a1.032 1.032 0 011.401.343.99.99 0 01-.35 1.372l-10.207 6a3.104 3.104 0 01-1.576.427 3.108 3.108 0 01-1.52-.396l-4.742-2.653-1.905.931-7.71-3.775a1.04 1.04 0 00-1.18.186l-2.04 2a.987.987 0 00-.13 1.261l3.461 5.084C.001 20.626.001 21.61.001 22c0 1.802 2.615 2 8.167 2C13.602 24 49 12.29 49 6c0-.501-.165-1.277-.945-2.015z" fill="#304BAB"/></svg>
